libs/ui/packages/crypto-icons/src/svg/CVC.svg

<svg width="24" height="24" viewBox="0 0 24 24" fill="none">
<path d="M12.8718 12.5842C13.17 12.4414 13.4217 12.2173 13.5982 11.9378C13.7746 11.6582 13.8686 11.3346 13.8693 11.004C13.8693 10.0335 13.0728 9.24675 12.0918 9.24675C11.1093 9.24675 10.3121 10.0335 10.3121 11.004C10.3129 11.3346 10.4071 11.6583 10.5839 11.9378C10.7606 12.2172 11.0127 12.4411 11.3111 12.5835V14.754H12.8718V12.5842ZM12.0918 17.625C8.95235 17.625 6.39935 15.102 6.39935 12C6.39935 8.898 8.95235 6.375 12.0918 6.375C14.6531 6.375 16.8244 8.055 17.5368 10.359H19.4988C18.7413 7.0065 15.7129 4.5 12.0911 4.5C7.89935 4.5 4.5011 7.85775 4.5011 12C4.5011 16.1423 7.89935 19.5 12.0911 19.5C15.7129 19.5 18.7413 16.9935 19.4988 13.641H17.5361C16.8236 15.945 14.6524 17.625 12.0911 17.625" fill="#3AB03E"/>
</svg>

<svg width="24" height="24" viewBox="0 0 24 24" fill="none"><path fill="#3ab03e" d="M12.872 12.584a1.76 1.76 0 0 0 .997-1.58c0-.97-.796-1.757-1.777-1.757-.983 0-1.78.787-1.78 1.757a1.76 1.76 0 0 0 1 1.58v2.17h1.56zm-.78 5.041c-3.14 0-5.693-2.523-5.693-5.625s2.553-5.625 5.693-5.625a5.69 5.69 0 0 1 5.445 3.984h1.962C18.74 7.007 15.713 4.5 12.09 4.5 7.898 4.5 4.5 7.858 4.5 12s3.398 7.5 7.59 7.5c3.622 0 6.65-2.506 7.408-5.859h-1.963a5.69 5.69 0 0 1-5.445 3.984"/></svg>
